_icons/SVG/094-gengar-shiny.svg

<svg xmlns="http://www.w3.org/2000/svg" width="32" height="32"><path fill="#424B7E" d="M24 23s3.033 2.587 3.279 6.16c.043.625.226 1.233.506 1.793l.162.323a.5.5 0 01-.448.724h-5.044a.497.497 0 01-.494-.429c-.125-.866-.663-2.805-2.961-3.571l5-5z"/><path fill="#495587" d="M8 23s-3.033 2.587-3.279 6.16a4.754 4.754 0 01-.506 1.793l-.162.323a.5.5 0 00.448.724h5.044c.25 0 .458-.181.494-.429.125-.866.663-2.805 2.961-3.571l-5-5z"/><path fill="#5B689D" d="M15.789.335L14 3.169 12.434 1.47a.25.25 0 00-.434.17v2.079L10.362 2.9a.25.25 0 00-.362.223v1.632L3.664 1.356a.25.25 0 00-.345.326l3.24 6.92a12.808 12.808 0 00-1.207 3.292c-2.197 1.402-5.01 3.94-5.323 7.902a.499.499 0 00.657.505l.814-.271.209.628a.5.5 0 00.848.174c.526-.588 1.407-1.4 2.538-1.887C5.473 24.893 7.314 29 16 29V.218a.247.247 0 00-.211.117z"/><path fill="#515E91" d="M26.648 11.895a12.795 12.795 0 00-1.207-3.292l3.24-6.92a.25.25 0 00-.345-.326L22 4.755V3.123a.25.25 0 00-.362-.224L20 3.718V1.64a.25.25 0 00-.434-.169L18 3.169 16.211.335A.247.247 0 0016 .218V29c8.686 0 10.527-4.108 10.905-10.055 1.131.486 2.013 1.299 2.538 1.887a.5.5 0 00.848-.174l.209-.628.814.271a.498.498 0 00.657-.505c-.314-3.961-3.126-6.499-5.323-7.901z"/><path fill="#F6B392" d="M22.407 11.134c.126-.073.298-.026.358.107a2.66 2.66 0 01-1.105 3.401 2.687 2.687 0 01-3.513-.75c-.085-.118-.04-.288.086-.36l4.174-2.398z"/><path fill="#2B3332" d="M20.5 14c.276 0 .5-.672.5-1.5 0-.19-.013-.37-.034-.538l-.965.554c.003.821.225 1.484.499 1.484z"/><path fill="#F9BDA0" d="M9.593 11.134c-.126-.073-.298-.026-.358.107a2.66 2.66 0 001.105 3.401 2.687 2.687 0 003.513-.75c.085-.118.04-.288-.086-.36l-4.174-2.398z"/><path fill="#373F3F" d="M11.5 14c-.276 0-.5-.672-.5-1.5 0-.19.013-.37.034-.538l.965.554c-.003.821-.225 1.484-.499 1.484z"/><path fill="#D1D4D4" d="M22.59 16.326C21.78 16.893 19.72 18 16 18v4s6.568 0 6.98-5.453c.015-.204-.222-.338-.39-.221z"/><path fill="#FFF" d="M9.41 16.326C10.22 16.893 12.28 18 16 18v4s-6.568 0-6.98-5.453c-.015-.204.222-.338.39-.221z"/><path fill="#515E91" d="M16 29v-4c-5.155 0-8.411-1.018-10.473-2.786C6.459 26.344 9.017 29 16 29z"/><path fill="#495587" d="M16 25v4c6.983 0 9.541-2.656 10.473-6.786C24.411 23.982 21.155 25 16 25z"/><path fill="#F7F7F7" d="M10 19.325c.787 1.086 1.922 1.733 3 2.115v-3.715c-1.369-.266-2.352-.679-3-1.036v2.636z"/><path fill="#EDEEEE" d="M13 21.44c1.568.555 3 .56 3 .56v-4c-1.159 0-2.151-.11-3-.275v3.715z"/><path fill="#DADDDC" d="M22 19.325c-.787 1.086-1.922 1.733-3 2.115v-3.715c1.369-.266 2.352-.679 3-1.036v2.636z"/><path fill="#E3E5E5" d="M19 21.44c-1.568.554-3 .56-3 .56v-4c1.159 0 2.151-.11 3-.275v3.715z"/></svg>

<?xml version="1.0" encoding="utf-8"?>
<!-- Generator: Adobe Illustrator 23.0.6, SVG Export Plug-In . SVG Version: 6.00 Build 0)  -->
<svg version="1.1" xmlns="http://www.w3.org/2000/svg" xmlns:xlink="http://www.w3.org/1999/xlink" x="0px" y="0px" width="32px"
	 height="32px" viewBox="0 0 32 32" enable-background="new 0 0 32 32" xml:space="preserve">
<g id="icons">
	<g>
		<path fill="#424B7E" d="M24,23c0,0,3.033,2.587,3.279,6.16c0.043,0.625,0.226,1.233,0.506,1.793l0.162,0.323
			C28.113,31.609,27.871,32,27.499,32h-5.044c-0.25,0-0.458-0.181-0.494-0.429C21.836,30.705,21.298,28.766,19,28L24,23z"/>
		<path fill="#495587" d="M8,23c0,0-3.033,2.587-3.279,6.16c-0.043,0.625-0.226,1.233-0.506,1.793l-0.162,0.323
			C3.887,31.609,4.129,32,4.501,32h5.044c0.25,0,0.458-0.181,0.494-0.429C10.164,30.705,10.702,28.766,13,28L8,23z"/>
		<path fill="#5B689D" d="M15.789,0.335L14,3.169L12.434,1.47C12.279,1.303,12,1.412,12,1.64v2.079l-1.638-0.819
			C10.196,2.816,10,2.937,10,3.123v1.632L3.664,1.356C3.452,1.242,3.217,1.465,3.319,1.682l3.24,6.92
			c-0.544,1.006-0.943,2.116-1.207,3.292c-2.197,1.402-5.01,3.94-5.323,7.902c-0.028,0.353,0.322,0.617,0.657,0.505L1.5,20.03
			l0.209,0.628c0.122,0.365,0.591,0.461,0.848,0.174c0.526-0.588,1.407-1.4,2.538-1.887C5.473,24.893,7.314,29,16,29h0V0.218
			C15.919,0.218,15.838,0.257,15.789,0.335z"/>
		<path fill="#515E91" d="M26.648,11.895c-0.264-1.176-0.663-2.287-1.207-3.292l3.24-6.92c0.102-0.218-0.133-0.44-0.345-0.326
			L22,4.755V3.123c0-0.186-0.196-0.307-0.362-0.224L20,3.718V1.64c0-0.228-0.279-0.337-0.434-0.169L18,3.169l-1.789-2.834
			C16.162,0.257,16.081,0.218,16,0.218V29c8.686,0,10.527-4.108,10.905-10.055c1.131,0.486,2.013,1.299,2.538,1.887
			c0.257,0.287,0.726,0.191,0.848-0.174L30.5,20.03l0.814,0.271c0.336,0.112,0.685-0.152,0.657-0.505
			C31.657,15.835,28.845,13.297,26.648,11.895z"/>
		<path fill="#F6B392" d="M22.407,11.134c0.126-0.073,0.298-0.026,0.358,0.107c0.558,1.233,0.097,2.71-1.105,3.401
			c-1.203,0.691-2.719,0.349-3.513-0.75c-0.085-0.118-0.04-0.288,0.086-0.36L22.407,11.134z"/>
		<path fill="#2B3332" d="M20.5,14c0.276,0,0.5-0.672,0.5-1.5c0-0.19-0.013-0.37-0.034-0.538l-0.965,0.554
			C20.004,13.337,20.226,14,20.5,14z"/>
		<path fill="#F9BDA0" d="M9.593,11.134c-0.126-0.073-0.298-0.026-0.358,0.107c-0.558,1.233-0.097,2.71,1.105,3.401
			c1.203,0.691,2.719,0.349,3.513-0.75c0.085-0.118,0.04-0.288-0.086-0.36L9.593,11.134z"/>
		<path fill="#373F3F" d="M11.5,14c-0.276,0-0.5-0.672-0.5-1.5c0-0.19,0.013-0.37,0.034-0.538l0.965,0.554
			C11.996,13.337,11.774,14,11.5,14z"/>
		<path fill="#D1D4D4" d="M22.59,16.326C21.78,16.893,19.72,18,16,18v4c0,0,6.568,0,6.98-5.453
			C22.995,16.343,22.758,16.209,22.59,16.326z"/>
		<path fill="#FFFFFF" d="M9.41,16.326C10.22,16.893,12.28,18,16,18v4c0,0-6.568,0-6.98-5.453
			C9.005,16.343,9.242,16.209,9.41,16.326z"/>
		<path fill="#515E91" d="M16,29v-4c-5.155,0-8.411-1.018-10.473-2.786C6.459,26.344,9.017,29,16,29z"/>
		<path fill="#495587" d="M16,25v4c6.983,0,9.541-2.656,10.473-6.786C24.411,23.982,21.155,25,16,25z"/>
		<path fill="#F7F7F7" d="M10,19.325c0.787,1.086,1.922,1.733,3,2.115v-3.715c-1.369-0.266-2.352-0.679-3-1.036V19.325z"/>
		<path fill="#EDEEEE" d="M13,21.44c1.568,0.555,3,0.56,3,0.56v-4c-1.159,0-2.151-0.11-3-0.275V21.44z"/>
		<path fill="#DADDDC" d="M22,19.325c-0.787,1.086-1.922,1.733-3,2.115v-3.715c1.369-0.266,2.352-0.679,3-1.036V19.325z"/>
		<path fill="#E3E5E5" d="M19,21.44C17.432,21.994,16,22,16,22v-4c1.159,0,2.151-0.11,3-0.275V21.44z"/>
	</g>
</g>
<g id="labels">
</g>
</svg>
